archdroid-icon-theme/Archdroid-DeepOrange/mimetypes/scalable/application-vnd.ms-onenote.svg

<svg fill="#FF5722" height="48" viewBox="0 0 48 48" width="48" xmlns="http://www.w3.org/2000/svg"><path d="m12 4c-2.21 0-3.980469 1.79-3.980469 4l-.019531 32c0 2.21 1.770468 4 3.980469 4h24.019531c2.21 0 4-1.79 4-4v-24l-12-12zm14 3 11 11h-11zm-7.751953 16.78125h1.923828l6.845703 10.976563.058594-.019532v-10.957031h1.923828v14.21875h-1.923828l-6.845703-10.996094-.058594.019532v10.976562h-1.923828z" fill="#80397b"/></svg>

<svg fill="#FF5722" height="48" version="1.1" viewBox="0 0 48 48" width="48" xmlns="http://www.w3.org/2000/svg"><path d="M12 4C9.79 4 8.019531 5.79 8.019531 8L8 40C8 42.21 9.770468 44 11.980469 44L36 44C38.21 44 40 42.21 40 40L40 16 28 4 12 4zM26 7L37 18 26 18 26 7zM18.248047 23.78125L20.171875 23.78125 27.017578 34.757813 27.076172 34.738281 27.076172 23.78125 29 23.78125 29 38 27.076172 38 20.230469 27.003906 20.171875 27.023438 20.171875 38 18.248047 38 18.248047 23.78125z" fill="#80397b"/></svg>
